libs/ui/packages/crypto-icons/src/svg/SAFE.svg

<svg width="24" height="24" viewBox="0 0 24 24" fill="none">
<path d="M20.2444 16.7565V7.25176L11.9914 2.49826L11.9801 2.50426L3.75562 7.25701V16.7595L11.9869 21.501L11.9876 21.5018L20.2436 16.7573L20.2444 16.7565ZM16.5919 15.237L15.1841 14.43L12.0431 16.2533C12.034 16.2586 12.0237 16.2614 12.0131 16.2614C12.0026 16.2614 11.9922 16.2586 11.9831 16.2533L8.37936 14.1645L8.37786 10.5308L5.21212 8.71576L11.9606 4.75951C11.9633 4.75785 11.9664 4.75698 11.9696 4.75698C11.9728 4.75698 11.9759 4.75785 11.9786 4.75951L18.2464 8.34301L17.1379 8.98426L11.9816 6.01726L7.40886 8.70151L8.99511 9.61276L11.9846 7.87426L11.9861 7.87276L15.6386 9.96151L15.6371 13.419L18.7504 15.2018L18.7496 15.2543L11.9876 19.2023L5.71912 15.6233L6.81637 14.9805L11.9771 17.9408L16.5919 15.2363V15.237Z" fill="#00688C"/>
<path d="M12.9813 11.112V11.0865L12.9806 11.07L12.9798 11.061L12.9784 11.0423V11.0363L12.9761 11.016V11.0108L12.9731 10.9898V10.986L12.9701 10.9643V10.9613L12.9663 10.9388L12.9656 10.9373L12.9611 10.9148L12.9603 10.9125L12.9551 10.89V10.8885C12.9537 10.881 12.9519 10.8734 12.9498 10.866V10.8645L12.9431 10.842V10.8413L12.9364 10.8173C12.9323 10.802 12.9273 10.7869 12.9213 10.7723V10.7715L12.9123 10.749C12.9096 10.7414 12.9066 10.7339 12.9033 10.7265L12.8936 10.704L12.8838 10.683L12.8733 10.6605L12.8628 10.6395L12.8508 10.6185C12.8468 10.6118 12.8428 10.6051 12.8388 10.5983V10.5975L12.8269 10.578L12.8261 10.5773C12.822 10.5709 12.8178 10.5646 12.8133 10.5585V10.557L12.8006 10.539C12.8006 10.539 12.8006 10.5375 12.7991 10.5375L12.7863 10.5195L12.7848 10.518C12.7803 10.512 12.7773 10.506 12.7721 10.5L12.7713 10.4985L12.7571 10.4813L12.7556 10.4798L12.7421 10.4633L12.7406 10.4618L12.7256 10.446C12.725 10.4454 12.7245 10.4446 12.7241 10.4438L12.7099 10.428C12.7092 10.4274 12.7087 10.4266 12.7083 10.4258L12.6941 10.4108C12.6884 10.405 12.6826 10.3993 12.6768 10.3935L12.6746 10.3913L12.6596 10.3763C12.6538 10.3713 12.6481 10.3663 12.6423 10.3613L12.6401 10.359C12.635 10.3541 12.6297 10.3494 12.6243 10.3448L12.6221 10.3425C12.617 10.3381 12.6117 10.3339 12.6063 10.3298L12.6041 10.3283L12.5876 10.3148L12.5853 10.3133L12.5681 10.3005L12.5658 10.299L12.5486 10.2863L12.5463 10.2848L12.5291 10.2728L12.5268 10.272L12.5088 10.26L12.5073 10.2585L12.4886 10.2473H12.4871L12.4676 10.2353H12.4661L12.4458 10.2233H12.4451C12.2057 10.1222 11.9365 10.1176 11.6938 10.2104C11.4511 10.3033 11.2538 10.4864 11.143 10.7215C11.0323 10.9566 11.0167 11.2254 11.0996 11.4716C11.1825 11.7179 11.3575 11.9225 11.5878 12.0428L11.1528 14.0318H12.7984L12.3596 12.0443C12.7361 11.8868 12.9813 11.5193 12.9813 11.112Z" fill="#00688C"/>
</svg>

<svg width="24" height="24" viewBox="0 0 24 24" fill="none"><path fill="#00688c" d="M20.244 16.757V7.251l-8.253-4.754-.01.006-8.225 4.753v9.503l8.23 4.741h.002zm-3.652-1.52-1.408-.807-3.14 1.823a.06.06 0 0 1-.06 0l-3.605-2.088-.001-3.634-3.166-1.815 6.749-3.956a.02.02 0 0 1 .018 0l6.267 3.583-1.108.641-5.156-2.967-4.573 2.685 1.586.91 2.99-1.738.001-.001 3.653 2.089-.002 3.457 3.113 1.783v.052l-6.762 3.948-6.269-3.579 1.097-.643 5.161 2.96z"/><path fill="#00688c" d="M12.981 11.112v-.042l-.001-.009-.002-.019v-.006l-.002-.02v-.005l-.003-.021v-.004l-.003-.022v-.003l-.004-.022v-.002l-.005-.022v-.002l-.006-.023v-.002l-.005-.022v-.002l-.007-.022-.007-.025-.015-.045-.009-.023-.009-.023-.01-.022-.01-.021-.01-.022-.01-.021-.012-.022-.012-.02-.012-.02-.014-.02v-.001l-.012-.018-.002-.002-.013-.018-.001-.001-.013-.018v-.002l-.015-.017-.001-.001-.014-.017-.001-.001-.015-.016-.002-.002-.014-.016-.002-.002-.014-.015-.017-.018-.002-.002-.015-.015-.018-.015-.002-.002-.016-.014-.002-.003-.016-.012-.002-.002-.016-.013-.003-.002-.017-.013-.002-.001-.017-.013-.003-.001-.017-.012-.002-.001-.018-.012-.002-.002-.018-.01h-.002l-.02-.013-.021-.012a1.007 1.007 0 0 0-.858 1.82l-.435 1.989h1.645l-.438-1.988a1.01 1.01 0 0 0 .621-.932"/></svg>
